svg/properties-script.svg

<?xml version="1.0" encoding="UTF-8"?>
<svg xmlns="http://www.w3.org/2000/svg" xmlns:xlink="http://www.w3.org/1999/xlink" width="32" height="32" viewBox="0 0 32 32">
<path fill-rule="nonzero" fill="rgb(0%, 0%, 0%)" fill-opacity="1" d="M 1.792969 0 C 0.832031 0 0 0.832031 0 1.792969 L 0 4.480469 L 28.160156 4.480469 L 28.160156 1.792969 C 28.160156 0.832031 27.328125 0 26.367188 0 Z M 0 5.761719 L 0 25.601562 C 0 25.984375 0.253906 26.238281 0.640625 26.238281 L 21.761719 26.238281 L 21.761719 26.878906 C 20.726562 26.878906 19.792969 27.503906 19.394531 28.460938 C 19 29.417969 19.21875 30.519531 19.949219 31.253906 C 20.429688 31.730469 21.082031 32 21.761719 32 L 28.800781 32 C 28.824219 32 28.84375 31.996094 28.863281 31.996094 C 30.601562 31.957031 31.992188 30.539062 32 28.800781 L 32 19.839844 C 32 19.488281 31.710938 19.199219 31.359375 19.199219 L 28.160156 19.199219 L 28.160156 5.761719 Z M 4.480469 9.601562 L 7.039062 9.601562 L 7.039062 10.878906 L 4.480469 10.878906 Z M 8.960938 9.601562 L 23.679688 9.601562 L 23.679688 10.878906 L 8.960938 10.878906 Z M 4.480469 12.800781 L 7.039062 12.800781 L 7.039062 14.078125 L 4.480469 14.078125 Z M 8.960938 12.800781 L 23.679688 12.800781 L 23.679688 14.078125 L 8.960938 14.078125 Z M 4.480469 16 L 7.039062 16 L 7.039062 17.28125 L 4.480469 17.28125 Z M 8.960938 16 L 23.679688 16 L 23.679688 17.28125 L 8.960938 17.28125 Z M 4.480469 19.199219 L 7.039062 19.199219 L 7.039062 20.480469 L 4.480469 20.480469 Z M 8.960938 19.199219 L 20.480469 19.199219 L 20.480469 20.480469 L 8.960938 20.480469 Z M 23.039062 20.480469 L 30.71875 20.480469 L 30.71875 28.800781 C 30.71875 29.859375 29.859375 30.71875 28.800781 30.71875 C 28.039062 30.71875 27.519531 30.203125 27.519531 29.441406 C 27.519531 28.675781 28.039062 28.160156 28.800781 28.160156 C 28.824219 28.160156 28.84375 28.15625 28.863281 28.15625 C 29.011719 28.140625 29.152344 28.070312 29.257812 27.960938 L 29.296875 27.910156 C 29.308594 27.894531 29.324219 27.878906 29.335938 27.859375 C 29.359375 27.824219 29.378906 27.785156 29.390625 27.742188 C 29.421875 27.664062 29.433594 27.578125 29.429688 27.492188 C 29.429688 27.46875 29.425781 27.449219 29.425781 27.429688 C 29.417969 27.367188 29.398438 27.304688 29.371094 27.246094 C 29.359375 27.226562 29.351562 27.207031 29.339844 27.191406 C 29.285156 27.097656 29.207031 27.019531 29.113281 26.96875 C 29.09375 26.957031 29.074219 26.949219 29.058594 26.9375 C 29.039062 26.925781 29.015625 26.921875 28.996094 26.914062 C 28.933594 26.890625 28.867188 26.878906 28.800781 26.878906 L 23.039062 26.878906 Z M 21.761719 28.160156 L 26.632812 28.160156 C 26.40625 28.542969 26.238281 28.960938 26.238281 29.441406 C 26.238281 29.917969 26.40625 30.335938 26.632812 30.71875 L 21.761719 30.71875 C 20.996094 30.71875 20.480469 30.203125 20.480469 29.441406 C 20.480469 28.675781 20.996094 28.160156 21.761719 28.160156 M 21.761719 28.160156 "/>
</svg>

<svg role="img" viewBox="0 0 32 32" height="32" width="32" xmlns="http://www.w3.org/2000/svg"><path d="M1.793 0C.832 0 0 .832 0 1.793V4.48h28.16V1.793C28.16.832 27.328 0 26.367 0ZM0 5.762v19.84c0 .382.254.636.64.636h21.122v.64a2.563 2.563 0 0 0-1.812 4.375c.48.477 1.132.747 1.812.747H28.8c.023 0 .043-.004.062-.004A3.21 3.21 0 0 0 32 28.801V19.84c0-.352-.29-.64-.64-.64h-3.2V5.761Zm4.48 3.84h2.56v1.277H4.48Zm4.48 0h14.72v1.277H8.96ZM4.48 12.8h2.56v1.277H4.48Zm4.48 0h14.72v1.277H8.96ZM4.48 16h2.56v1.281H4.48Zm4.48 0h14.72v1.281H8.96Zm-4.48 3.2h2.56v1.28H4.48Zm4.48 0h11.52v1.28H8.96Zm14.08 1.28h7.679v8.32a1.92 1.92 0 0 1-1.918 1.919c-.762 0-1.281-.516-1.281-1.278 0-.765.52-1.28 1.28-1.28.024 0 .044-.005.063-.005a.646.646 0 0 0 .395-.195l.039-.05c.012-.016.027-.032.039-.052a.403.403 0 0 0 .055-.117.6.6 0 0 0 .039-.25c0-.023-.004-.043-.004-.062a.62.62 0 0 0-.055-.184c-.012-.02-.02-.039-.031-.055a.59.59 0 0 0-.227-.222c-.02-.012-.039-.02-.054-.032-.02-.011-.043-.015-.063-.023a.557.557 0 0 0-.195-.035h-5.762Zm-1.278 7.68h4.87c-.226.383-.394.8-.394 1.281 0 .477.168.895.395 1.278h-4.871c-.766 0-1.282-.516-1.282-1.278 0-.765.516-1.28 1.282-1.28m0 0"/></svg>
